X:1
T:A Shropshire Lad
T:White in the moon the long road lies
T:A Shropshire Lad
T:7. White in the moon the long road lies
T:Arthur Somervell
T:A. E. Housman
T:Creative Commons copyright waiver (CC0 1.0 Universal)
T:Creative Commons copyright waiver (CC0 1.0 Universal)
T:Creative Commons copyright waiver (CC0 1.0 Universal)
T:Creative Commons copyright waiver (CC0 1.0 Universal)
C:Arthur Somervell
Z:A. E. Housman
Z:Creative Commons copyright waiver (CC0 1.0 Universal)
L:1/8
M:2/4
K:D
V:1 treble nm="Voice"
V:1
 z4 | z4 | z4 |!pp! F F3/4 F/4 B3/2 E/ | F F!<(! B3/2 B/!<)! | d D (F/E) D/ |!>(! A3!>)! z | z4 | %8
w: |||White in the moon the|long road lies, The|moon stands blank * a-|\- bove;||
 z z z3/2 d/ | c A B3/2 ^E/ | F2 z2 | z4 | z4 | z4 | z4 | z4 | z4 | z4 | z4 | z4 | z2 z z/!mf! F/ | %21
w: That|leads me from my|love.||||||||||The|
 G/ B/ d- d/ F/ E/ D/ | A3 z/ z/ | z4 | z4 | z4 | z4 |!>(! G3!>)! A | F2 z2 | %29
w: world is round, * so trav- 'llers|tell,|||||guide one|back.|
 z/!p! C/ D/ E/ F3/2 G/ | (F/E) C/ F3/2 G/ |!<(! ^G/ A/ ^A/!<)! B/ (dc) | z4 | z4 | z4 | z4 | z4 | %37
w: But ere the cir- cle|home- * ward hies, Far,|far must it re- move: _||||||
 z4 | z4 | z4 |] %40
w: |||

